offer/images/data.svg

<svg height="77" viewBox="0 0 82 77" width="82" xmlns="http://www.w3.org/2000/svg"><g fill="none" fill-rule="evenodd"><path d="m56.0333333 68.3333333h-30.0666666c-3.0189453 0-5.4666667 2.4477214-5.4666667 5.4666667v2.7333333h41v-2.7333333c0-3.0189453-2.4477214-5.4666667-5.4666667-5.4666667z" fill="#999"/><path d="m34.1666667 60.1333333h13.6666666v8.2h-13.6666666z" fill="#656665"/><path d="m13.6666667 10.9333333h-13.6666667v49.2h82v-49.2h-13.6666667" fill="#999"/><path d="m13.6666667 16.4h-8.20000003v38.2666667h71.06666663v-38.2666667h-8.2" fill="#94cce7"/><g transform="translate(18)"><path d="m11.6661543 29h-5.6661543v-1.4017796h5.3728866l2.6255764-2.5982204 1.001537.991102-2.8330772 2.8035592c-.1324546.131759-.3122886.2053388-.5007685.2053388z" fill="#bab8b9"/><path d="m32.001537 10-1.001537-1.16539235 5.6661543-6.59315896c.1324547-.15492955.3122887-.24144869.5007685-.24144869h2.8330772v1.64828974h-2.5398094z" fill="#bab8b9"/><path d="m21 29v14.6818182c0 1.2805841.8951823 2.3181818 2 2.3181818s2-1.0375977 2-2.3181818v-14.6818182" fill="#bc8f6f"/><path d="m21.5 45c.8930664-.3854855 1.5-1.0941996 1.5-1.9154828v-14.0845172h-3v14.0845172c0 .8212832.6069336 1.5299973 1.5 1.9154828z" fill="#cb9e78"/><path d="m40 23h6v23h-6z" fill="#7a6ac3"/><path d="m40 23h3v23h-3z" fill="#a795e6"/><path d="m31 31h6v15h-6z" fill="#ca5057"/><path d="m31 31h3v15h-3z" fill="#dc6068"/><path d="m9 38h6v8h-6z" fill="#7e4e4d"/><path d="m10 38h3v8h-3z" fill="#8d5655"/><path d="m0 34h6v12h-6z" fill="#eebc5a"/><path d="m0 34h3v12h-3z" fill="#f8cf6a"/><path d="m35 19.8v-4.6h-1.8107259c-.2594238-1.0938476-.696289-2.117692-1.2836425-3.0389649l1.5610351-1.5610351-3.0666667-3.06666667-1.5610351 1.56103511c-.9212729-.58735349-1.9451173-1.02421875-3.0389649-1.28364255v-1.81072589h-4.6v1.81072589c-1.0938476.2594238-2.117692.69628906-3.0389649 1.28364255l-1.5610351-1.56103511-3.0666667 3.06666667 1.5610351 1.5610351c-.5873535.9212729-1.0242187 1.9451173-1.2836425 3.0389649h-1.8107259v4.6h1.8107259c.2594238 1.0938476.696289 2.117692 1.2836425 3.0389649l-1.5610351 1.5610351 3.0666667 3.0666667 1.5610351-1.5610351c.9212729.5873534 1.9451173 1.0242187 3.0389649 1.2836425v1.8107259h4.6v-1.8107259c1.0938476-.2594238 2.117692-.6962891 3.0389649-1.2836425l1.5610351 1.5610351 3.0666667-3.0666667-1.5610351-1.5610351c.5873534-.9212729 1.0242187-1.9451173 1.2836425-3.0389649z" fill="#599072"/><path d="m30 18c0 3.8661024-3.1338976 7-7 7s-7-3.1338976-7-7 3.1338976-7 7-7 7 3.1338976 7 7z" fill="#fff"/><path d="m46 3c0 1.65673828-1.3432617 3-3 3s-3-1.34326172-3-3 1.3432617-3 3-3 3 1.34326172 3 3z" fill="#5789d6"/><path d="m44 3c0-1.65696567-.8955078-3-2-3s-2 1.34303433-2 3 .8955078 3 2 3 2-1.34303433 2-3z" fill="#699ce6"/><path d="m6 28c0 1.6567383-1.34326172 3-3 3s-3-1.3432617-3-3 1.34326172-3 3-3 3 1.3432617 3 3z" fill="#bc8f6f"/><path d="m4 28c0-1.6569657-.89550783-3-2-3s-2 1.3430343-2 3 .89550783 3 2 3 2-1.3430343 2-3z" fill="#cb9e78"/><path d="m25 17.5c0 .8283692-.6716308 1.5-1.5 1.5s-1.5-.6716308-1.5-1.5.6716308-1.5 1.5-1.5 1.5.6716308 1.5 1.5z" fill="#70b48f"/><path d="m19 31h8v2h-8z" fill="#bab8b9"/><path d="m19 31h4v2h-4z" fill="#d9d7d8"/><g fill="#bab8b9" transform="translate(17 12)"><path d="m1.88034188 22.4578313h7.52136752v1.5421687h-7.52136752z"/><path d="m.03305284 9.38177716c.28352039.42884029.61661995.81890054.98460878 1.17131014l3.6508747-3.74284634-1.06356837-1.09036144z"/><path d="m9.863348.07492472-4.00196979 4.10278612 1.06356837 1.09036145 4.00196982-4.10278612c-.3143697-.40286149-.6706063-.76807229-1.0635684-1.09036145z"/></g><path d="m23 19c-1.1025391 0-2-.8974609-2-2s.8974609-2 2-2 2 .8974609 2 2-.8974609 2-2 2zm0-2.6666667c-.3678385 0-.6666667.2988282-.6666667.6666667s.2988282.6666667.6666667.6666667.6666667-.2988282.6666667-.6666667-.2988282-.6666667-.6666667-.6666667z" fill="#599072" fill-rule="nonzero"/><path d="m19 34h4v2h-4z" fill="#d9d7d8"/></g></g></svg>

<?xml version="1.0" encoding="UTF-8"?>
<svg width="82px" height="77px" viewBox="0 0 82 77" version="1.1" xmlns="http://www.w3.org/2000/svg" xmlns:xlink="http://www.w3.org/1999/xlink">
    <!-- Generator: Sketch 52.2 (67145) - http://www.bohemiancoding.com/sketch -->
    <title>content copy</title>
    <desc>Created with Sketch.</desc>
    <g id="Page-1" stroke="none" stroke-width="1" fill="none" fill-rule="evenodd">
        <g id="offer" transform="translate(-704.000000, -6348.000000)">
            <g id="content-copy" transform="translate(704.000000, 6348.000000)">
                <path d="M56.0333333,68.3333333 L25.9666667,68.3333333 C22.9477214,68.3333333 20.5,70.7810547 20.5,73.8 L20.5,76.5333333 L61.5,76.5333333 L61.5,73.8 C61.5,70.7810547 59.0522786,68.3333333 56.0333333,68.3333333 Z" id="Path" fill="#999999"></path>
                <polygon id="Path" fill="#656665" points="34.1666667 60.1333333 47.8333333 60.1333333 47.8333333 68.3333333 34.1666667 68.3333333"></polygon>
                <polyline id="Path" fill="#999999" points="13.6666667 10.9333333 0 10.9333333 0 60.1333333 82 60.1333333 82 10.9333333 68.3333333 10.9333333"></polyline>
                <polyline id="Path" fill="#94CCE7" points="13.6666667 16.4 5.46666667 16.4 5.46666667 54.6666667 76.5333333 54.6666667 76.5333333 16.4 68.3333333 16.4"></polyline>
                <g id="analytics" transform="translate(18.000000, 0.000000)">
                    <path d="M11.6661543,29 L6,29 L6,27.5982204 L11.3728866,27.5982204 L13.998463,25 L15,25.991102 L12.1669228,28.7946612 C12.0344682,28.9264202 11.8546342,29 11.6661543,29 Z" id="Path" fill="#BAB8B9"></path>
                    <path d="M32.001537,10 L31,8.83460765 L36.6661543,2.24144869 C36.798609,2.08651914 36.978443,2 37.1669228,2 L40,2 L40,3.64828974 L37.4601906,3.64828974 L32.001537,10 Z" id="Path" fill="#BAB8B9"></path>
                    <path d="M21,29 L21,43.6818182 C21,44.9624023 21.8951823,46 23,46 C24.1048177,46 25,44.9624023 25,43.6818182 L25,29" id="Path" fill="#BC8F6F"></path>
                    <path d="M21.5,45 C22.3930664,44.6145145 23,43.9058004 23,43.0845172 L23,29 L20,29 L20,43.0845172 C20,43.9058004 20.6069336,44.6145145 21.5,45 Z" id="Path" fill="#CB9E78"></path>
                    <polygon id="Path" fill="#7A6AC3" points="40 23 46 23 46 46 40 46"></polygon>
                    <polygon id="Path" fill="#A795E6" points="40 23 43 23 43 46 40 46"></polygon>
                    <polygon id="Path" fill="#CA5057" points="31 31 37 31 37 46 31 46"></polygon>
                    <polygon id="Path" fill="#DC6068" points="31 31 34 31 34 46 31 46"></polygon>
                    <polygon id="Path" fill="#7E4E4D" points="9 38 15 38 15 46 9 46"></polygon>
                    <polygon id="Path" fill="#8D5655" points="10 38 13 38 13 46 10 46"></polygon>
                    <polygon id="Path" fill="#EEBC5A" points="0 34 6 34 6 46 0 46"></polygon>
                    <polygon id="Path" fill="#F8CF6A" points="0 34 3 34 3 46 0 46"></polygon>
                    <path d="M35,19.8 L35,15.2 L33.1892741,15.2 C32.9298503,14.1061524 32.4929851,13.082308 31.9056316,12.1610351 L33.4666667,10.6 L30.4,7.53333333 L28.8389649,9.09436844 C27.917692,8.50701495 26.8938476,8.07014969 25.8,7.81072589 L25.8,6 L21.2,6 L21.2,7.81072589 C20.1061524,8.07014969 19.082308,8.50701495 18.1610351,9.09436844 L16.6,7.53333333 L13.5333333,10.6 L15.0943684,12.1610351 C14.5070149,13.082308 14.0701497,14.1061524 13.8107259,15.2 L12,15.2 L12,19.8 L13.8107259,19.8 C14.0701497,20.8938476 14.5070149,21.917692 15.0943684,22.8389649 L13.5333333,24.4 L16.6,27.4666667 L18.1610351,25.9056316 C19.082308,26.492985 20.1061524,26.9298503 21.2,27.1892741 L21.2,29 L25.8,29 L25.8,27.1892741 C26.8938476,26.9298503 27.917692,26.492985 28.8389649,25.9056316 L30.4,27.4666667 L33.4666667,24.4 L31.9056316,22.8389649 C32.492985,21.917692 32.9298503,20.8938476 33.1892741,19.8 L35,19.8 Z" id="Path" fill="#599072"></path>
                    <path d="M30,18 C30,21.8661024 26.8661024,25 23,25 C19.1338976,25 16,21.8661024 16,18 C16,14.1338976 19.1338976,11 23,11 C26.8661024,11 30,14.1338976 30,18 Z" id="Path" fill="#FFFFFF"></path>
                    <path d="M46,3 C46,4.65673828 44.6567383,6 43,6 C41.3432617,6 40,4.65673828 40,3 C40,1.34326172 41.3432617,0 43,0 C44.6567383,0 46,1.34326172 46,3 Z" id="Path" fill="#5789D6"></path>
                    <path d="M44,3 C44,1.34303433 43.1044922,0 42,0 C40.8955078,0 40,1.34303433 40,3 C40,4.65696567 40.8955078,6 42,6 C43.1044922,6 44,4.65696567 44,3 Z" id="Path" fill="#699CE6"></path>
                    <path d="M6,28 C6,29.6567383 4.65673828,31 3,31 C1.34326172,31 0,29.6567383 0,28 C0,26.3432617 1.34326172,25 3,25 C4.65673828,25 6,26.3432617 6,28 Z" id="Path" fill="#BC8F6F"></path>
                    <path d="M4,28 C4,26.3430343 3.10449217,25 2,25 C0.895507833,25 0,26.3430343 0,28 C0,29.6569657 0.895507833,31 2,31 C3.10449217,31 4,29.6569657 4,28 Z" id="Path" fill="#CB9E78"></path>
                    <path d="M25,17.5 C25,18.3283692 24.3283692,19 23.5,19 C22.6716308,19 22,18.3283692 22,17.5 C22,16.6716308 22.6716308,16 23.5,16 C24.3283692,16 25,16.6716308 25,17.5 Z" id="Path" fill="#70B48F"></path>
                    <polygon id="Path" fill="#BAB8B9" points="19 31 27 31 27 33 19 33"></polygon>
                    <polygon id="Path" fill="#D9D7D8" points="19 31 23 31 23 33 19 33"></polygon>
                    <g id="Group" transform="translate(17.000000, 12.000000)" fill="#BAB8B9">
                        <polygon id="Path" points="1.88034188 22.4578313 9.4017094 22.4578313 9.4017094 24 1.88034188 24"></polygon>
                        <path d="M0.0330528376,9.38177716 C0.316573231,9.81061745 0.649672786,10.2006777 1.01766162,10.5530873 L4.66853632,6.81024096 L3.60496795,5.71987952 L0.0330528376,9.38177716 Z" id="Path"></path>
                        <path d="M9.863348,0.0749247229 L5.86137821,4.17771084 L6.92494658,5.26807229 L10.9269164,1.16528617 C10.6125467,0.762424675 10.2563101,0.39721388 9.863348,0.0749247229 Z" id="Path"></path>
                    </g>
                    <path d="M23,19 C21.8974609,19 21,18.1025391 21,17 C21,15.8974609 21.8974609,15 23,15 C24.1025391,15 25,15.8974609 25,17 C25,18.1025391 24.1025391,19 23,19 Z M23,16.3333333 C22.6321615,16.3333333 22.3333333,16.6321615 22.3333333,17 C22.3333333,17.3678385 22.6321615,17.6666667 23,17.6666667 C23.3678385,17.6666667 23.6666667,17.3678385 23.6666667,17 C23.6666667,16.6321615 23.3678385,16.3333333 23,16.3333333 Z" id="Shape" fill="#599072" fill-rule="nonzero"></path>
                    <polygon id="Path" fill="#D9D7D8" points="19 34 23 34 23 36 19 36"></polygon>
                </g>
            </g>
        </g>
    </g>
</svg>
